assets/fa/fa-head-side-cough.svg

<svg xmlns="http://www.w3.org/2000/svg" width="100%" height="100%" viewBox="-54.4 -118.4 748.8 748.8"><path d="M616 304a24 24 0 10-24-24 24 24 0 0024 24zm-64 112a24 24 0 1024 24 24 24 0 00-24-24zm-64-56a24 24 0 1024 24 24 24 0 00-24-24zm128 104a24 24 0 1024 24 24 24 0 00-24-24zm0-104a24 24 0 1024 24 24 24 0 00-24-24zm-64-40a24 24 0 1024 24 24 24 0 00-24-24zm-74.78-45c-21-47.12-48.5-151.75-73.12-186.75A208.13 208.13 0 00234.1 0H192C86 0 0 86 0 192c0 56.75 24.75 107.62 64 142.88V512h224v-32h64a64 64 0 0064-64h-96a32 32 0 010-64h96v-32h32a32 32 0 0029.22-45zM288 224a32 32 0 1132-32 32.07 32.07 0 01-32 32z"/></svg>

<svg xmlns="http://www.w3.org/2000/svg" width="100%" height="100%" viewBox="-54.4 -118.4 748.8 748.8"><path d="M616,304a24,24,0,1,0-24-24A24,24,0,0,0,616,304ZM552,416a24,24,0,1,0,24,24A24,24,0,0,0,552,416Zm-64-56a24,24,0,1,0,24,24A24,24,0,0,0,488,360ZM616,464a24,24,0,1,0,24,24A24,24,0,0,0,616,464Zm0-104a24,24,0,1,0,24,24A24,24,0,0,0,616,360Zm-64-40a24,24,0,1,0,24,24A24,24,0,0,0,552,320Zm-74.78-45c-21-47.12-48.5-151.75-73.12-186.75A208.13,208.13,0,0,0,234.1,0H192C86,0,0,86,0,192c0,56.75,24.75,107.62,64,142.88V512H288V480h64a64,64,0,0,0,64-64H320a32,32,0,0,1,0-64h96V320h32A32,32,0,0,0,477.22,275ZM288,224a32,32,0,1,1,32-32A32.07,32.07,0,0,1,288,224Z"/></svg>
